build/img/sprites/tg-fill.svg

<svg width="13" height="11" viewBox="0 0 13 11" fill="none" xmlns="http://www.w3.org/2000/svg">
<path d="M11.9446 0.125021L0.427255 4.61298C-0.0362254 4.82197 -0.192987 5.24051 0.315231 5.46765L3.26994 6.41649L10.414 1.95498C10.8041 1.6749 11.2035 1.74958 10.8598 2.0577L4.72401 7.67153L4.53127 10.0473C4.70979 10.4141 5.03667 10.4158 5.24517 10.2335L6.94274 8.61039L9.85009 10.8103C10.5254 11.2143 10.8928 10.9536 11.0381 10.2132L12.945 1.08877C13.143 0.177399 12.8054 -0.22416 11.9446 0.125021Z" fill="white"/>
</svg>

<svg width="13" height="11" viewBox="0 0 13 11" fill="none" xmlns="http://www.w3.org/2000/svg"><path d="M11.945.125L.427 4.613c-.463.209-.62.628-.112.855l2.955.948 7.144-4.461c.39-.28.79-.205.446.103L4.724 7.672l-.193 2.375c.179.367.506.369.714.186L6.943 8.61l2.907 2.2c.675.404 1.043.144 1.188-.597l1.907-9.124c.198-.912-.14-1.313-1-.964z" fill="#fff"/></svg>
